**kern	**silbe	**kern	**silbe
*ICvox	*	*ICvox	*
*D-:	*	*D-:	*
*M4/4	*	*M4/4	*
*clefG2	*	*clefG2	*
2r	.	1r	.
4A-	Red	.	.
4c	red	.	.
=1	=1	=1	=1
2d-	wine	1r	.
4B-	_	.	.
4r	.	.	.
=2	=2	=2	=2
2r	.	1r	.
8.e-	goes	.	.
16[f	to	.	.
16f]	_	.	.
8.g-	my	.	.
=3	=3	=3	=3
8f	head	1r	.
16d-	_	.	.
16B-	_	.	.
8.d-	_	.	.
16[B-	_	.	.
8B-]	_	.	.
8r	.	.	.
4r	.	.	.
=4	=4	=4	=4
2r	.	1r	.
8.e-	Makes	.	.
16[f	me	.	.
8f]	_	.	.
8g-	for-	.	.
=5	=5	=5	=5
8.f	-get	1r	.
16[d-	that	.	.
16d-]	_	.	.
16d-	I	.	.
8r	.	.	.
8r	.	.	.
8r	.	.	.
4r	.	.	.
=6	=6	=6	=6
2r	.	1r	.
16B-	still	.	.
8A-	_	.	.
16[A-	need	.	.
8A-]	_	.	.
16G-	your	.	.
16[A-	_	.	.
=7	=7	=7	=7
16A-]	_	1r	.
8A-	so	.	.
16B-	_	.	.
4A-	_	.	.
2r	.	.	.
=8	=8	=8	=8
2r	.	2r	.
4A-	Red	4c	Red
4c	red	4e-	red
=9	=9	=9	=9
2d-	wine	8.d-	wine
.	.	16B-	_
.	.	8.A-	_
.	.	16F	_
4B-	_	4G-	_
4r	.	4r	.
=10	=10	=10	=10
2r	.	2r	.
8.e-	It's	8.c	It's
16[f	up	16[c	up
8f]	_	8c]	_
8g-	to	8d-	to
=11	=11	=11	=11
8f	you	8.d-	you
16d-	_	.	.
16e-	_	16[B-	_
8.d-	_	8.B-]	_
16[B-	_	16[G-	_
4B-]	_	4G-]	_
4r	.	4r	.
=12	=12	=12	=12
2r	.	2r	.
8.e-	All	8.c	All
16[f	I	16[c	I
8f]	_	8c]	_
8g-	can	8d-	can
=13	=13	=13	=13
8.f	do	8.d-	do
8.d-	I've	8.A-	I've
8d-	done	16A-	done
.	.	16F	_
2r	.	2r	.
=14	=14	=14	=14
2r	.	2r	.
8.B-	Me-	8.G-	Me-
16[A-	-mories	16[F	-mories
8A-]	_	8F]	_
8G-	won't	8E-	won't
=15	=15	=15	=15
8.A-	go	8.F	go
16B-	_	16G-	_
4[A-	_	4[F	_
4A-]	_	4F]	_
4r	.	4r	.
=16	=16	=16	=16
4r	.	1r	.
4G-	Mem-	.	.
8F	-ories	.	.
8r	.	.	.
8D-	won't	.	.
8E-	go	.	.
=17	=17	=17	=17
4D-	_	1r	.
4r	.	.	.
2r	.	.	.
=18	=18	=18	=18
2r	.	2.r	.
4r	.	.	.
8A-	I'd	8A-	I'd
8d-	have	8A-	have
=19	=19	=19	=19
2c	sworn	2A-	sworn
4r	.	4r	.
8A-	that	8A-	that
8e-	with	8A-	with
=20	=20	=20	=20
8.d-	time	2F	time
16B-	_	.	.
4A-	_	.	.
2r	.	2r	.
=21	=21	=21	=21
8.g-	thoughts	8.G-	thoughts
16[f	of	16[G-	of
8f]	_	8G-]	_
8[d-	you	8[G-	you
8d-]	_	8G-]	_
16B-	would	16G-	would
8B-	leave	8G-	leave
8G-	my	8G-	my
16[B-	head	16[G-	head
=22	=22	=22	=22
16B-]	_	16G-]	_
8.A-	_	8.F	_
4r	.	4r	.
4r	.	4r	.
8A-	I	8A-	I
8d-	was	8A-	was
=23	=23	=23	=23
8.c	wrong	2A-	wrong
16B-	_	.	.
16c	_	.	.
16B-	_	.	.
8A-	_	.	.
4r	.	4r	.
8A-	Now	8A-	Now
8e-	I	8[A-	I
=24	=24	=24	=24
16d-	_	16A-]	_
8.d-	find	8.[F	find
8A-	_	8F]	_
8r	.	8r	.
4r	.	4r	.
8e-	just	8E-	just
8f	one	8F	one
=25	=25	=25	=25
4g-	thing	4G-	thing
8.f	makes	8.G-	makes
16[d-	me	16[G-	me
8d-]	_	8G-]	_
16r	.	16r	.
16[f	for-	16G-	for-
16f]	_	8A-	_
16e-	_	.	.
8[e-	-get	8[A-	-get
=26	=26	=26	=26
4e-]	_	4A-]	_
4r	.	4r	.
4d-	Red	4f	Red
4d-	red	4f	red
=27	=27	=27	=27
8d-	wine	8.f	wine
16B-	_	.	.
16d-	_	16[d-	_
8.B-	_	8.d-]	_
16[G-	_	16[B-	_
4G-]	_	4B-]	_
4r	.	4r	.
=28	=28	=28	=28
2r	.	2r	.
8.e-	Stay	8.c	Stay
16[f	closer	16[c	closer
8f]	_	8c]	_
8g-	to	8c	to
=29	=29	=29	=29
8f	me	8.d-	me
16d-	_	.	.
16e-	_	16[B-	_
8.d-	_	8.B-]	_
16[B-	_	16[G-	_
4B-]	_	4G-]	_
4r	.	4r	.
=30	=30	=30	=30
2r	.	2r	.
8.e-	Don't	8.c	Don't
16[f	let	16[c	let
8f]	_	8c]	_
8g-	me	8c	me
=31	=31	=31	=31
8.f	be	8.d-	be
16[d-	a-	16[A-	a-
16d-]	_	16A-]	_
8.d-	-lone	8.A-	-lone
2r	.	2r	.
=32	=32	=32	=32
4.r	.	2r	.
8B-	It's	.	.
8.B-	tear-	8.G-	tear-
16[A-	-ing	16[F	-ing
8A-]	_	8F]	_
8G-	a-	8E-	a-
=33	=33	=33	=33
8.A-	-part	8.F	-part
16B-	_	16G-	_
4[A-	_	4[F	_
4A-]	_	4F]	_
4r	.	4r	.
=34	=34	=34	=34
4r	.	1r	.
8.G-	my	.	.
32F	blue	.	.
32G-	_	.	.
8F	_	.	.
8r	.	.	.
8r	.	.	.
8E-	heart	.	.
=35	=35	=35	=35
4D-	_	1r	.
4r	.	.	.
2r	.	.	.
=36	=36	=36	=36
1r	.	1r	.
=37	=37	=37	=37
1r	.	1r	.
=38	=38	=38	=38
2r	.	2.r	.
4r	.	.	.
8A-	I'd	8A-	I'd
8d-	have	8A-	have
=39	=39	=39	=39
2c	sworn	2A-	sworn
4r	.	4r	.
8A-	that	8A-	that
8e-	with	8A-	with
=40	=40	=40	=40
8.d-	time	2F	time
16B-	_	.	.
4A-	_	.	.
2r	.	2r	.
=41	=41	=41	=41
8.g-	thoughts	8.G-	thoughts
16[f	of	16[G-	of
8f]	_	8G-]	_
8[d-	you	8[G-	you
8d-]	_	8G-]	_
16B-	would	16G-	would
8B-	leave	8G-	leave
8G-	my	8G-	my
16[B-	head	16[G-	head
=42	=42	=42	=42
16B-]	_	16G-]	_
8.A-	_	8.F	_
4r	.	4r	.
4r	.	4r	.
8A-	I	8A-	I
8d-	was	8A-	was
=43	=43	=43	=43
8.c	wrong	2A-	wrong
16B-	_	.	.
16c	_	.	.
16B-	_	.	.
8A-	_	.	.
4r	.	4r	.
8A-	Now	8A-	Now
8e-	I	8[A-	I
=44	=44	=44	=44
16d-	_	16A-]	_
8.d-	find	8.[F	find
8A-	_	8F]	_
8r	.	8r	.
8.r	.	4r	.
16e-	that	.	.
8e-	just	8E-	just
8f	one	8F	one
=45	=45	=45	=45
4g-	thing	4G-	thing
8.f	makes	8.G-	makes
16[d-	me	16[G-	me
8d-]	_	8G-]	_
16r	.	16r	.
16[f	for-	16G-	for-
16f]	_	8A-	_
16e-	_	.	.
8[e-	-get	8[A-	-get
=46	=46	=46	=46
4e-]	_	4A-]	_
4r	.	4r	.
4d-	Red	4f	Red
4d-	red	4f	red
=47	=47	=47	=47
8d-	wine	8.f	wine
16B-	_	.	.
16d-	_	16[d-	_
8.B-	_	8.d-]	_
16[G-	_	16[B-	_
4G-]	_	4B-]	_
4r	.	4r	.
=48	=48	=48	=48
2r	.	2r	.
8.e-	Stay	8.c	Stay
16[f	closer	16[d-	closer
8f]	_	8d-]	_
8g-	to	8d-	to
=49	=49	=49	=49
8f	me	8.d-	me
16d-	_	.	.
16e-	_	16[B-	_
8.d-	_	8.B-]	_
16[B-	_	16[G-	_
4B-]	_	4G-]	_
4r	.	4r	.
=50	=50	=50	=50
2r	.	2r	.
8.e-	Don't	8.c	Don't
16[f	let	16[c	let
8f]	_	8c]	_
16g-	me	8B-	me
16a-	_	.	.
=51	=51	=51	=51
8.f	be	8.d-	be
16[d-	a-	16[A-	a-
16d-]	_	16A-]	_
8.d-	-lone	8.A-	-lone
2r	.	2r	.
=52	=52	=52	=52
4.r	.	4.r	.
8B-	It's	8G-	It's
8.B-	tear-	8.G-	tear-
16[A-	-ing	16[F	-ing
8A-]	_	8F]	_
8G-	a-	8E-	a-
=53	=53	=53	=53
8.A-	-part	8.F	-part
16B-	_	16G-	_
4[A-	_	4[F	_
8A-]	_	8F]	_
8r	.	8r	.
4r	.	4r	.
=54	=54	=54	=54
4r	.	1r	.
8.g-	my	.	.
32f	blue	.	.
32g-	_	.	.
8f	_	.	.
16r	.	.	.
8.d-	blue	.	.
8e-	heart	.	.
=55	=55	=55	=55
4d-	_	1r	.
4r	.	.	.
2r	.	.	.
=56	=56	=56	=56
1r	.	1r	.
=57	=57	=57	=57
1r	.	1r	.
=58	=58	=58	=58
2r	.	2r	.
4A-	Red	4c	Red
4c	red	4e-	red
=59	=59	=59	=59
2d-	wine	8.d-	wine
.	.	16B-	_
.	.	8.A-	_
.	.	16F	_
4B-	_	4G-	_
4r	.	4r	.
=60	=60	=60	=60
2r	.	2r	.
8.e-	Stay	8.c	Stay
16[f	closer	16[c	closer
8f]	_	8c]	_
8g-	to	8c	to
=61	=61	=61	=61
8f	me	8.d-	me
16d-	_	.	.
16e-	_	16[B-	_
8.d-	_	8.B-]	_
16[B-	_	16[G-	_
4B-]	_	4G-]	_
4r	.	4r	.
=62	=62	=62	=62
2r	.	2r	.
8.e-	Don't	8.c	Don't
16[f	let	16[c	let
8f]	_	8c]	_
8g-	me	8d-	me
=63	=63	=63	=63
8.f	be	8.d-	be
16[d-	a-	16[A-	a-
16d-]	_	16A-]	_
8.d-	-lone	8.A-	-lone
2r	.	2r	.
=64	=64	=64	=64
4.r	.	4.r	.
8B-	It's	8G-	It's
8.B-	tear-	8.G-	tear-
16[A-	-ing	16[F	-ing
8A-]	_	8F]	_
8G-	a-	8E-	a-
=65	=65	=65	=65
8.A-	-part	8.F	-part
16B-	_	16G-	_
4[A-	_	4[F	_
4A-]	_	4F]	_
4r	.	4r	.
=66	=66	=66	=66
4r	.	1r	.
8.g-	my	.	.
32f	blue	.	.
32g-	_	.	.
8f	_	.	.
16r	.	.	.
8.d-	blue	.	.
8e-	heart	.	.
=67	=67	=67	=67
4d-	_	1r	.
4r	.	.	.
2r	.	.	.
*-	*-	*-	*-
!!!ENC: Nathaniel Condit-Schultz